img/part6/8/1_步驟1_icon.svg

<svg width="34" height="34" viewBox="0 0 34 34" fill="none" xmlns="http://www.w3.org/2000/svg"><g clip-path="url(#clip0_36_422)"><path d="M21 12H7C6.73478 12 6.48043 11.8946 6.29289 11.7071C6.10536 11.5196 6 11.2652 6 11V7C6 6.73478 6.10536 6.48043 6.29289 6.29289C6.48043 6.10536 6.73478 6 7 6H21C21.2652 6 21.5196 6.10536 21.7071 6.29289C21.8946 6.48043 22 6.73478 22 7V11C22 11.2652 21.8946 11.5196 21.7071 11.7071C21.5196 11.8946 21.2652 12 21 12ZM8 10H20V7.94H8V10Z" fill="white"></path><path d="M21 14.0801H7C6.73478 14.0801 6.48043 14.1854 6.29289 14.373C6.10536 14.5605 6 14.8149 6 15.0801V19.0001C6 19.2653 6.10536 19.5196 6.29289 19.7072C6.48043 19.8947 6.73478 20.0001 7 20.0001H18.36L22 16.3001V15.0801C22 14.8149 21.8946 14.5605 21.7071 14.373C21.5196 14.1854 21.2652 14.0801 21 14.0801ZM20 18.0001H8V16.0001H20V18.0001Z" fill="white"></path><path d="M11.06 31.51V31.45L11.38 30.06H4V4H24V14.25L26 12.36V3C26 2.73478 25.8946 2.48043 25.7071 2.29289C25.5196 2.10536 25.2652 2 25 2H3C2.73478 2 2.48043 2.10536 2.29289 2.29289C2.10536 2.48043 2 2.73478 2 3V31C2 31.2652 2.10536 31.5196 2.29289 31.7071C2.48043 31.8946 2.73478 32 3 32H11C11.0082 31.8354 11.0283 31.6717 11.06 31.51Z" fill="white"></path><path d="M22 19.1699L21.22 19.9599C21.4135 19.92 21.5908 19.8237 21.7297 19.6831C21.8685 19.5425 21.9625 19.3639 22 19.1699Z" fill="white"></path><path d="M6 26.94C6 27.2052 6.10536 27.4596 6.29289 27.6471C6.48043 27.8346 6.73478 27.94 7 27.94H11.84L12.14 26.64L12.27 26.09V26.04H8V24H14.34L16.34 22H7C6.73478 22 6.48043 22.1054 6.29289 22.2929C6.10536 22.4804 6 22.7348 6 23V26.94Z" fill="white"></path><path d="M33.49 16.6698L30.12 13.2998C29.9704 13.1498 29.7927 13.0308 29.5971 12.9496C29.4015 12.8685 29.1918 12.8267 28.98 12.8267C28.7682 12.8267 28.5585 12.8685 28.3628 12.9496C28.1672 13.0308 27.9895 13.1498 27.84 13.2998L14.13 27.0898L13 31.8998C12.9577 32.1073 12.9567 32.3211 12.9972 32.529C13.0376 32.7369 13.1187 32.9347 13.2358 33.1112C13.3528 33.2877 13.5035 33.4394 13.6793 33.5575C13.855 33.6757 14.0524 33.758 14.26 33.7998C14.3631 33.8101 14.4669 33.8101 14.57 33.7998C14.6925 33.8197 14.8175 33.8197 14.94 33.7998L19.79 32.7298L33.49 18.9998C33.6396 18.8511 33.7584 18.6742 33.8395 18.4794C33.9205 18.2847 33.9622 18.0758 33.9622 17.8648C33.9622 17.6538 33.9205 17.4449 33.8395 17.2501C33.7584 17.0553 33.6396 16.8785 33.49 16.7298V16.6698ZM18.77 30.9098L15.11 31.7198L16 28.0898L26.28 17.6998L29.1 20.5198L18.77 30.9098ZM30.23 19.3898L27.41 16.5698L29 14.9998L31.84 17.8398L30.23 19.3898Z" fill="white"></path></g><defs><clipPath id="clip0_36_422"><rect width="34" height="34" fill="white"></rect></clipPath></defs></svg>

<svg width="34" height="34" fill="none" xmlns="http://www.w3.org/2000/svg"><g clip-path="url(#a)" fill="#fff"><path d="M21 12H7a1 1 0 0 1-1-1V7a1 1 0 0 1 1-1h14a1 1 0 0 1 1 1v4a1 1 0 0 1-1 1ZM8 10h12V7.94H8V10ZM21 14.08H7a1 1 0 0 0-1 1V19a1 1 0 0 0 1 1h11.36L22 16.3v-1.22a1 1 0 0 0-1-1ZM20 18H8v-2h12v2Z"/><path d="M11.06 31.51v-.06l.32-1.39H4V4h20v10.25l2-1.89V3a1 1 0 0 0-1-1H3a1 1 0 0 0-1 1v28a1 1 0 0 0 1 1h8c.008-.165.028-.328.06-.49ZM22 19.17l-.78.79a1 1 0 0 0 .78-.79Z"/><path d="M6 26.94a1 1 0 0 0 1 1h4.84l.3-1.3.13-.55v-.05H8V24h6.34l2-2H7a1 1 0 0 0-1 1v3.94ZM33.49 16.67l-3.37-3.37a1.61 1.61 0 0 0-2.28 0L14.13 27.09 13 31.9a1.61 1.61 0 0 0 1.26 1.9c.103.01.207.01.31 0 .123.02.248.02.37 0l4.85-1.07L33.49 19a1.602 1.602 0 0 0 0-2.27v-.06ZM18.77 30.91l-3.66.81.89-3.63L26.28 17.7l2.82 2.82-10.33 10.39Zm11.46-11.52-2.82-2.82L29 15l2.84 2.84-1.61 1.55Z"/></g><defs><clipPath id="a"><path fill="#fff" d="M0 0h34v34H0z"/></clipPath></defs></svg>
